packages/foundations/assets/icons/functional/images/social/star_12.svg

<svg width="12" height="12" viewBox="0 0 12 12" fill="none" xmlns="http://www.w3.org/2000/svg">
<g clip-path="url(#clip0_232_451)">
<path fill-rule="evenodd" clip-rule="evenodd" d="M6.00001 1.40625C6.22501 1.40625 6.45001 1.53747 6.54373 1.74369L7.68751 4.08747L10.2937 4.46247C10.575 4.49997 10.8 4.74369 10.8 5.06247C10.8 5.21247 10.725 5.38125 10.6125 5.49369L8.73751 7.31247L9.18751 9.89997C9.24373 10.275 8.96251 10.5937 8.58751 10.5937C8.49373 10.5937 8.40001 10.5562 8.32501 10.5187L6.00001 9.29997L3.67501 10.5187C3.58129 10.575 3.50629 10.5937 3.39373 10.5937C3.03751 10.5937 2.75629 10.2375 2.81251 9.89997L3.26251 7.31247L1.38751 5.49369C1.27501 5.38125 1.20001 5.21247 1.20001 5.06247C1.20001 4.81869 1.36873 4.51869 1.70629 4.46247L4.31251 4.08747L5.45629 1.74369C5.55001 1.53747 5.77501 1.40625 6.00001 1.40625ZM6.00001 3.35625L5.23129 4.89369C5.13751 5.08125 4.98751 5.19369 4.78129 5.23125L3.09373 5.47497L4.31251 6.67497C4.44373 6.80625 4.53751 7.03125 4.50001 7.19997L4.20001 8.88747L5.71873 8.09997C5.81251 8.04369 5.90629 8.02497 6.00001 8.02497C6.09373 8.02497 6.18751 8.04369 6.28129 8.09997L7.80001 8.88747L7.50001 7.19997C7.46251 7.01247 7.55629 6.80625 7.68751 6.67497L8.90629 5.47497L7.21873 5.23125C7.01251 5.19369 6.86251 5.06247 6.76873 4.89369L6.00001 3.35625Z" fill="#1A1C1F"/>
</g>
<defs>
<clipPath id="clip0_232_451">
<rect width="12" height="12" fill="white"/>
</clipPath>
</defs>
</svg>

<svg xmlns="http://www.w3.org/2000/svg" width="12" height="12" fill="none"><g clip-path="url(#a)"><path fill="#1A1C1F" fill-rule="evenodd" d="M6 1.406c.225 0 .45.131.544.338l1.144 2.343 2.606.375a.59.59 0 0 1 .506.6c0 .15-.075.32-.187.432L8.738 7.312l.45 2.588a.598.598 0 0 1-.6.694.6.6 0 0 1-.263-.075L6 9.3l-2.325 1.219a.5.5 0 0 1-.281.075c-.356 0-.638-.356-.581-.694l.45-2.588-1.875-1.818a.65.65 0 0 1-.188-.432c0-.243.169-.543.506-.6l2.607-.375 1.143-2.343A.6.6 0 0 1 6 1.406m0 1.95-.769 1.538a.6.6 0 0 1-.45.337l-1.687.244 1.219 1.2c.13.131.225.356.187.525l-.3 1.687L5.719 8.1A.53.53 0 0 1 6 8.025a.53.53 0 0 1 .281.075l1.519.787L7.5 7.2c-.037-.188.056-.394.188-.525l1.218-1.2-1.687-.244a.64.64 0 0 1-.45-.337z" clip-rule="evenodd"/></g><defs><clipPath id="a"><path fill="#fff" d="M0 0h12v12H0z"/></clipPath></defs></svg>
